project3/images/icon-speed.svg

<?xml version="1.0" encoding="utf-8"?>
<svg viewBox="4.921 6 88 88" xmlns="http://www.w3.org/2000/svg">
  <path d="M83.6,28.3L83.6,28.3c0.6,0.6,1.4,0.9,2.1,0.9s1.5-0.3,2.1-0.9l2.8-2.8c0.6-0.6,0.9-1.3,0.9-2.1c0-0.8-0.3-1.6-0.9-2.1  l-2.8-2.8c-1.2-1.2-3.1-1.2-4.2,0l-2.8,2.8c-0.6,0.6-0.9,1.3-0.9,2.1c0,0.8,0.3,1.6,0.9,2.1l0,0l-2.1,2.1  c-5.5-4.9-12.4-8.2-20.1-9.2V16H60c2.8,0,5-2.2,5-5s-2.2-5-5-5H47c-2.8,0-5,2.2-5,5s2.2,5,5,5h1.5v2.3c-1.6,0.2-3.1,0.5-4.6,0.9  c-1.6,0.4-2.6,2.1-2.2,3.7c0.4,1.6,2,2.6,3.7,2.2c2-0.5,4.1-0.8,6.1-1V29c0,1.1,0.9,2,2,2s2-0.9,2-2v-4.9c4.3,0.3,8.4,1.4,12.1,3.3  l-2.4,4.2c-0.5,1-0.2,2.2,0.7,2.7c0.3,0.2,0.7,0.3,1,0.3c0.7,0,1.4-0.4,1.7-1l2.4-4.2c3.5,2.3,6.4,5.2,8.8,8.7l-4.2,2.5  c-0.9,0.6-1.3,1.8-0.7,2.7c0.4,0.6,1,1,1.7,1c0.3,0,0.7-0.1,1-0.3l4.2-2.5c2,3.8,3.2,8.1,3.4,12.6h-4.8c-1.1,0-2,0.9-2,2s0.9,2,2,2  h4.8c-0.3,4.5-1.5,8.7-3.4,12.6l-4.2-2.5c-1-0.6-2.2-0.3-2.7,0.7s-0.3,2.2,0.7,2.7l4.2,2.5c-2.3,3.4-5.3,6.4-8.8,8.7l-2.4-4.2  c-0.5-1-1.8-1.3-2.7-0.7c-1,0.5-1.3,1.8-0.7,2.7l2.4,4.2c-3.7,1.8-7.8,3-12.1,3.3V83c0-1.1-0.9-2-2-2s-2,0.9-2,2v4.9  c-2.1-0.1-4.1-0.4-6.2-1c-1.6-0.4-3.2,0.5-3.7,2.2c-0.4,1.6,0.5,3.2,2.2,3.7c3.1,0.8,6.3,1.2,9.6,1.2c21,0,38-17,38-38  c0-9.9-3.8-18.9-10-25.6L83.6,28.3z M85.7,21.9l1.4,1.4l-1.4,1.4l-1.4-1.4L85.7,21.9z M47,12c-0.5,0-1-0.5-1-1s0.5-1,1-1h13  c0.5,0,1,0.5,1,1s-0.5,1-1,1h-5.5v6c-0.4,0-0.7,0-1.1,0c-0.3,0-0.6,0-0.9,0v-6H47z M56.5,58.9c0,0,0.1-0.1,0.1-0.1l13.8-15.9  c0.6-0.7,0.7-1.8,0.1-2.6c-0.6-0.8-1.6-1-2.5-0.5l-18.6,9.8c-1.2,0.6-2.1,1.6-2.6,2.7c-1,2.2-0.5,4.8,1.2,6.6  c1.2,1.2,2.8,1.9,4.3,1.9C53.8,60.5,55.3,60,56.5,58.9z M50.9,55.9c-0.6-0.6-0.7-1.4-0.4-2.2c0.1-0.3,0.4-0.5,0.8-0.7l9.2-4.8  L53.7,56C52.9,56.7,51.6,56.7,50.9,55.9z M39.5,31c0,1.1-0.9,2-2,2h-9.6c-1.1,0-2-0.9-2-2s0.9-2,2-2h9.6C38.6,29,39.5,29.9,39.5,31z   M39.5,41c0,1.1-0.9,2-2,2H22.1c-1.1,0-2-0.9-2-2s0.9-2,2-2h15.4C38.6,39,39.5,39.9,39.5,41z M39.5,51c0,1.1-0.9,2-2,2H16.3  c-1.1,0-2-0.9-2-2s0.9-2,2-2h21.2C38.6,49,39.5,49.9,39.5,51z M39.5,61c0,1.1-0.9,2-2,2h-27c-1.1,0-2-0.9-2-2s0.9-2,2-2h27  C38.6,59,39.5,59.9,39.5,61z M39.5,71c0,1.1-0.9,2-2,2H16.3c-1.1,0-2-0.9-2-2s0.9-2,2-2h21.2C38.6,69,39.5,69.9,39.5,71z M39.5,81  c0,1.1-0.9,2-2,2H22.1c-1.1,0-2-0.9-2-2s0.9-2,2-2h15.4C38.6,79,39.5,79.9,39.5,81z" style="fill: rgb(255, 255, 255);"/>
  <g style="" transform="matrix(0.883978, 0, 0, 0.886427, -44.310604, 1.387691)">
    <path d="M 61.767 27.286 C 61.867 27.386 62.067 27.486 62.267 27.486 C 62.467 27.486 62.667 27.386 62.767 27.286 C 63.067 26.986 63.067 26.486 62.767 26.286 L 60.967 24.486 C 60.667 24.186 60.167 24.186 59.967 24.486 C 59.667 24.786 59.667 25.286 59.967 25.486 L 61.767 27.286 Z" style="stroke-width: 0.564843px; fill: rgb(255, 255, 255); stroke: rgb(255, 255, 255);"/>
    <path d="M 67.467 33.086 C 67.567 33.186 67.767 33.286 67.967 33.286 C 68.167 33.286 68.367 33.186 68.467 33.086 C 68.767 32.786 68.767 32.286 68.467 32.086 L 66.667 30.286 C 66.367 29.986 65.867 29.986 65.667 30.286 C 65.467 30.586 65.367 31.086 65.667 31.286 L 67.467 33.086 Z" style="stroke-width: 0.564843px; fill: rgb(255, 255, 255); stroke: rgb(255, 255, 255);"/>
    <path d="M 60.467 33.286 C 60.667 33.286 60.867 33.186 60.967 33.086 L 62.767 31.286 C 63.067 30.986 63.067 30.486 62.767 30.286 C 62.467 29.986 61.967 29.986 61.767 30.286 L 59.967 31.986 C 59.667 32.286 59.667 32.786 59.967 32.986 C 60.067 33.186 60.267 33.286 60.467 33.286 Z" style="stroke-width: 0.564843px; fill: rgb(255, 255, 255); stroke: rgb(255, 255, 255);"/>
    <path d="M 66.267 27.486 C 66.467 27.486 66.667 27.386 66.767 27.286 L 68.567 25.486 C 68.867 25.186 68.867 24.686 68.567 24.486 C 68.267 24.286 67.767 24.186 67.567 24.486 L 65.767 26.286 C 65.467 26.586 65.467 27.086 65.767 27.286 C 65.867 27.386 66.067 27.486 66.267 27.486 Z" style="stroke-width: 0.564843px; fill: rgb(255, 255, 255); stroke: rgb(255, 255, 255);"/>
  </g>
  <path d="M 5.92 9.393 C 6.178 9.519 6.447 9.581 6.706 9.581 C 7.367 9.581 8.001 9.214 8.314 8.58 C 8.753 7.696 8.386 6.623 7.501 6.185 C 6.617 5.748 5.544 6.113 5.105 6.999 C 4.669 7.884 5.034 8.956 5.92 9.393 Z" style="fill: rgb(255, 255, 255);"/>
  <g style="" transform="matrix(0.883978, 0, 0, 0.886427, -30.387737, -13.924606)">
    <path d="M 61.767 27.286 C 61.867 27.386 62.067 27.486 62.267 27.486 C 62.467 27.486 62.667 27.386 62.767 27.286 C 63.067 26.986 63.067 26.486 62.767 26.286 L 60.967 24.486 C 60.667 24.186 60.167 24.186 59.967 24.486 C 59.667 24.786 59.667 25.286 59.967 25.486 L 61.767 27.286 Z" style="stroke-width: 0.564843px; fill: rgb(255, 255, 255); stroke: rgb(255, 255, 255);"/>
    <path d="M 67.467 33.086 C 67.567 33.186 67.767 33.286 67.967 33.286 C 68.167 33.286 68.367 33.186 68.467 33.086 C 68.767 32.786 68.767 32.286 68.467 32.086 L 66.667 30.286 C 66.367 29.986 65.867 29.986 65.667 30.286 C 65.467 30.586 65.367 31.086 65.667 31.286 L 67.467 33.086 Z" style="stroke-width: 0.564843px; fill: rgb(255, 255, 255); stroke: rgb(255, 255, 255);"/>
    <path d="M 60.467 33.286 C 60.667 33.286 60.867 33.186 60.967 33.086 L 62.767 31.286 C 63.067 30.986 63.067 30.486 62.767 30.286 C 62.467 29.986 61.967 29.986 61.767 30.286 L 59.967 31.986 C 59.667 32.286 59.667 32.786 59.967 32.986 C 60.067 33.186 60.267 33.286 60.467 33.286 Z" style="stroke-width: 0.564843px; fill: rgb(255, 255, 255); stroke: rgb(255, 255, 255);"/>
    <path d="M 66.267 27.486 C 66.467 27.486 66.667 27.386 66.767 27.286 L 68.567 25.486 C 68.867 25.186 68.867 24.686 68.567 24.486 C 68.267 24.286 67.767 24.186 67.567 24.486 L 65.767 26.286 C 65.467 26.586 65.467 27.086 65.767 27.286 C 65.867 27.386 66.067 27.486 66.267 27.486 Z" style="stroke-width: 0.564843px; fill: rgb(255, 255, 255); stroke: rgb(255, 255, 255);"/>
  </g>
</svg>

<svg viewBox="4.921 6 88 88" xmlns="http://www.w3.org/2000/svg"><path d="M83.6 28.3c.6.6 1.4.9 2.1.9s1.5-.3 2.1-.9l2.8-2.8c.6-.6.9-1.3.9-2.1s-.3-1.6-.9-2.1l-2.8-2.8c-1.2-1.2-3.1-1.2-4.2 0l-2.8 2.8c-.6.6-.9 1.3-.9 2.1s.3 1.6.9 2.1l-2.1 2.1c-5.5-4.9-12.4-8.2-20.1-9.2V16H60c2.8 0 5-2.2 5-5s-2.2-5-5-5H47c-2.8 0-5 2.2-5 5s2.2 5 5 5h1.5v2.3c-1.6.2-3.1.5-4.6.9-1.6.4-2.6 2.1-2.2 3.7.4 1.6 2 2.6 3.7 2.2 2-.5 4.1-.8 6.1-1V29c0 1.1.9 2 2 2s2-.9 2-2v-4.9c4.3.3 8.4 1.4 12.1 3.3l-2.4 4.2c-.5 1-.2 2.2.7 2.7.3.2.7.3 1 .3.7 0 1.4-.4 1.7-1l2.4-4.2c3.5 2.3 6.4 5.2 8.8 8.7l-4.2 2.5c-.9.6-1.3 1.8-.7 2.7.4.6 1 1 1.7 1 .3 0 .7-.1 1-.3l4.2-2.5c2 3.8 3.2 8.1 3.4 12.6h-4.8c-1.1 0-2 .9-2 2s.9 2 2 2h4.8c-.3 4.5-1.5 8.7-3.4 12.6l-4.2-2.5c-1-.6-2.2-.3-2.7.7s-.3 2.2.7 2.7l4.2 2.5c-2.3 3.4-5.3 6.4-8.8 8.7l-2.4-4.2c-.5-1-1.8-1.3-2.7-.7-1 .5-1.3 1.8-.7 2.7l2.4 4.2c-3.7 1.8-7.8 3-12.1 3.3V83c0-1.1-.9-2-2-2s-2 .9-2 2v4.9c-2.1-.1-4.1-.4-6.2-1-1.6-.4-3.2.5-3.7 2.2-.4 1.6.5 3.2 2.2 3.7 3.1.8 6.3 1.2 9.6 1.2 21 0 38-17 38-38 0-9.9-3.8-18.9-10-25.6l2.2-2.1zm2.1-6.4l1.4 1.4-1.4 1.4-1.4-1.4 1.4-1.4zM47 12c-.5 0-1-.5-1-1s.5-1 1-1h13c.5 0 1 .5 1 1s-.5 1-1 1h-5.5v6h-2v-6H47zm9.5 46.9l.1-.1 13.8-15.9c.6-.7.7-1.8.1-2.6s-1.6-1-2.5-.5l-18.6 9.8c-1.2.6-2.1 1.6-2.6 2.7-1 2.2-.5 4.8 1.2 6.6 1.2 1.2 2.8 1.9 4.3 1.9 1.5-.3 3-.8 4.2-1.9zm-5.6-3c-.6-.6-.7-1.4-.4-2.2.1-.3.4-.5.8-.7l9.2-4.8-6.8 7.8c-.8.7-2.1.7-2.8-.1zM39.5 31c0 1.1-.9 2-2 2h-9.6c-1.1 0-2-.9-2-2s.9-2 2-2h9.6c1.1 0 2 .9 2 2zm0 10c0 1.1-.9 2-2 2H22.1c-1.1 0-2-.9-2-2s.9-2 2-2h15.4c1.1 0 2 .9 2 2zm0 10c0 1.1-.9 2-2 2H16.3c-1.1 0-2-.9-2-2s.9-2 2-2h21.2c1.1 0 2 .9 2 2zm0 10c0 1.1-.9 2-2 2h-27c-1.1 0-2-.9-2-2s.9-2 2-2h27c1.1 0 2 .9 2 2zm0 10c0 1.1-.9 2-2 2H16.3c-1.1 0-2-.9-2-2s.9-2 2-2h21.2c1.1 0 2 .9 2 2zm0 10c0 1.1-.9 2-2 2H22.1c-1.1 0-2-.9-2-2s.9-2 2-2h15.4c1.1 0 2 .9 2 2z" fill="#fff"/><g stroke-width=".565" fill="#fff" stroke="#fff"><path d="M61.767 27.286c.1.1.3.2.5.2s.4-.1.5-.2c.3-.3.3-.8 0-1l-1.8-1.8c-.3-.3-.8-.3-1 0-.3.3-.3.8 0 1l1.8 1.8zM67.467 33.086c.1.1.3.2.5.2s.4-.1.5-.2c.3-.3.3-.8 0-1l-1.8-1.8c-.3-.3-.8-.3-1 0-.2.3-.3.8 0 1l1.8 1.8zM60.467 33.286c.2 0 .4-.1.5-.2l1.8-1.8c.3-.3.3-.8 0-1-.3-.3-.8-.3-1 0l-1.8 1.7c-.3.3-.3.8 0 1 .1.2.3.3.5.3zM66.267 27.486c.2 0 .4-.1.5-.2l1.8-1.8c.3-.3.3-.8 0-1-.3-.2-.8-.3-1 0l-1.8 1.8c-.3.3-.3.8 0 1 .1.1.3.2.5.2z" transform="matrix(.88398 0 0 .88643 -44.31 1.388)"/></g><path d="M5.92 9.393c.258.126.527.188.786.188a1.791 1.791 0 00.795-3.396A1.789 1.789 0 105.92 9.393z" fill="#fff"/><g stroke-width=".565" fill="#fff" stroke="#fff"><path d="M61.767 27.286c.1.1.3.2.5.2s.4-.1.5-.2c.3-.3.3-.8 0-1l-1.8-1.8c-.3-.3-.8-.3-1 0-.3.3-.3.8 0 1l1.8 1.8zM67.467 33.086c.1.1.3.2.5.2s.4-.1.5-.2c.3-.3.3-.8 0-1l-1.8-1.8c-.3-.3-.8-.3-1 0-.2.3-.3.8 0 1l1.8 1.8zM60.467 33.286c.2 0 .4-.1.5-.2l1.8-1.8c.3-.3.3-.8 0-1-.3-.3-.8-.3-1 0l-1.8 1.7c-.3.3-.3.8 0 1 .1.2.3.3.5.3zM66.267 27.486c.2 0 .4-.1.5-.2l1.8-1.8c.3-.3.3-.8 0-1-.3-.2-.8-.3-1 0l-1.8 1.8c-.3.3-.3.8 0 1 .1.1.3.2.5.2z" transform="matrix(.88398 0 0 .88643 -30.388 -13.925)"/></g></svg>
